X: 9195
T: Damascus Drum, The
R: reel
M: 4/4
K: Dminor
"A"GA A/A/A BA^cd|"A"eAde ^c4|"A"^cA A/A/A GABA|"A"A/A/A GA A4|
"A"GA A/A/A BA^cd|"A"eAde g4|"Dm"fd d/d/d "A"e^c c/c/c|1 "Bb"dB B/B/B "A"A4:|2 "Bb"dB B/B/B "A"^c4||
|:"Dm"^cd d/d/d edfd|"Dm"d/d/d gd a4|"Dm"a(3g/a/g/ fd "A"e^c c/c/c|"Bb"dB B/B/B "A"^c4|
"Dm"^cd d/d/d edfd|"Dm"d/d/d gd a4|"A"GA A/A/A A/A/A BA|"A"A/A/A GA A4:|
|:"A"GA A/A/A BA^cd|"A"edgf e4|"A"eAde ^cA A/A/A|"Gm"d(3^c/d/c/ BG "A"A4|
"A"GA A/A/A BA^cd|"A"edgf e4|"A"eAde gAaA|"A"A/A/A ga a4:|
|:"Dm"ad d/d/d gdfd|"Dm"d/d/d fe "A"^c4|"A"^cA A/A/A GABA|"A"A/A/A GA A4|
"Dm"ad d/d/d gdad|"Dm"d/d/d ga a(3g/a/g/ fd|"Dm"d/d/d fe "A"^cc/c/ ce|"Bb"dB B/B/B "A"A4:|

